icons/home-wifi-line.svg

<svg viewBox="0 0 24 24" fill="currentColor" xmlns="http://www.w3.org/2000/svg"><path d="M6 19H18V9.15745L12 3.7029L6 9.15745V19ZM19 21H5C4.44772 21 4 20.5523 4 20V11L1 11L11.3273 1.6115C11.7087 1.26475 12.2913 1.26475 12.6727 1.6115L23 11L20 11V20C20 20.5523 19.5523 21 19 21ZM8 9.99998C11.866 9.99998 15 13.134 15 17H13C13 14.2386 10.7614 12 8 12V9.99998ZM8 14C9.65685 14 11 15.3431 11 17H8V14Z"/></svg>

<svg xmlns="http://www.w3.org/2000/svg" viewBox="0 0 24 24">
    <g>
        <path fill="none" d="M0 0h24v24H0z"/>
        <path d="M6 19h12V9.157l-6-5.454-6 5.454V19zm13 2H5a1 1 0 0 1-1-1v-9H1l10.327-9.388a1 1 0 0 1 1.346 0L23 11h-3v9a1 1 0 0 1-1 1zM8 10a7 7 0 0 1 7 7h-2a5 5 0 0 0-5-5v-2zm0 4a3 3 0 0 1 3 3H8v-3z"/>
    </g>
</svg>
